src/assets/diamonds_2.svg

<?xml version="1.0" encoding="UTF-8"?>
<svg xmlns="http://www.w3.org/2000/svg" xmlns:xlink="http://www.w3.org/1999/xlink" width="99px" height="140px" viewBox="0 0 99 140" version="1.1">
<g id="surface1">
<path style="fill-rule:nonzero;fill:rgb(100%,100%,100%);fill-opacity:1;stroke-width:0.755906;stroke-linecap:butt;stroke-linejoin:miter;stroke:rgb(50.196078%,50.196078%,50.196078%);stroke-opacity:1;stroke-miterlimit:4;" d="M 9.297585 719.743103 L 224.702415 719.743103 C 229.632812 719.743103 233.621449 723.747651 233.621449 728.681329 L 233.621449 1043.042991 C 233.621449 1047.976669 229.632812 1051.981217 224.702415 1051.981217 L 9.297585 1051.981217 C 4.367188 1051.981217 0.378551 1047.976669 0.378551 1043.042991 L 0.378551 728.681329 C 0.378551 723.747651 4.367188 719.743103 9.297585 719.743103 Z M 9.297585 719.743103 " transform="matrix(0.423077,0,0,0.42042,0,-302.434542)"/>
<path style=" stroke:none;fill-rule:nonzero;fill:rgb(100%,0%,0%);fill-opacity:1;" d="M 49.5 39.820312 L 61.449219 27.90625 L 49.5 15.992188 L 37.550781 27.90625 Z M 49.5 39.820312 "/>
<path style=" stroke:none;fill-rule:nonzero;fill:rgb(100%,0%,0%);fill-opacity:1;" d="M 49.5 124.007812 L 61.449219 112.09375 L 49.5 100.179688 L 37.550781 112.09375 Z M 49.5 124.007812 "/>
<path style=" stroke:none;fill-rule:nonzero;fill:rgb(100%,0%,0%);fill-opacity:1;" d="M 7.277344 25.789062 L 11.261719 21.816406 L 7.277344 17.847656 L 3.296875 21.816406 Z M 7.277344 25.789062 "/>
<path style=" stroke:none;fill-rule:nonzero;fill:rgb(100%,0%,0%);fill-opacity:1;" d="M 91.722656 114.210938 L 95.703125 118.183594 L 91.722656 122.152344 L 87.738281 118.183594 Z M 91.722656 114.210938 "/>
<path style=" stroke:none;fill-rule:nonzero;fill:rgb(100%,0%,0%);fill-opacity:1;" d="M 11.207031 12.777344 L 10.910156 15.199219 L 3.296875 15.199219 C 3.414062 13.808594 3.957031 12.582031 4.921875 11.519531 L 7.507812 9.246094 C 8.40625 8.445312 8.855469 7.640625 8.855469 6.835938 C 8.855469 6.296875 8.707031 5.867188 8.40625 5.550781 C 8.117188 5.226562 7.710938 5.0625 7.195312 5.0625 C 6.601562 5.0625 6.15625 5.230469 5.863281 5.558594 C 5.671875 5.777344 5.527344 6.113281 5.425781 6.570312 C 5.324219 7.054688 5.246094 7.332031 5.1875 7.410156 C 5.101562 7.4375 5.003906 7.453125 4.890625 7.453125 L 3.886719 7.453125 C 3.769531 7.453125 3.667969 7.425781 3.582031 7.378906 C 3.546875 7.261719 3.527344 7.132812 3.527344 6.992188 C 3.527344 5.84375 3.890625 4.933594 4.621094 4.257812 C 5.316406 3.609375 6.222656 3.285156 7.339844 3.285156 C 8.375 3.285156 9.222656 3.570312 9.882812 4.140625 C 10.585938 4.746094 10.933594 5.574219 10.933594 6.628906 C 10.933594 7.664062 10.546875 8.617188 9.769531 9.476562 C 9.5 9.785156 8.730469 10.441406 7.457031 11.445312 C 6.535156 12.1875 5.964844 12.851562 5.753906 13.445312 L 9.46875 13.445312 L 9.53125 12.703125 C 9.589844 12.441406 9.746094 12.308594 10.003906 12.308594 L 10.800781 12.308594 C 11.109375 12.308594 11.242188 12.464844 11.207031 12.777344 Z M 11.207031 12.777344 "/>
<path style=" stroke:none;fill-rule:nonzero;fill:rgb(100%,0%,0%);fill-opacity:1;" d="M 87.792969 127.222656 L 88.089844 124.800781 L 95.703125 124.800781 C 95.585938 126.191406 95.042969 127.417969 94.078125 128.480469 L 91.492188 130.753906 C 90.59375 131.554688 90.144531 132.359375 90.144531 133.164062 C 90.144531 133.703125 90.292969 134.132812 90.59375 134.449219 C 90.882812 134.773438 91.289062 134.9375 91.804688 134.9375 C 92.398438 134.9375 92.84375 134.769531 93.136719 134.441406 C 93.328125 134.222656 93.472656 133.886719 93.574219 133.429688 C 93.675781 132.945312 93.753906 132.667969 93.8125 132.589844 C 93.898438 132.5625 93.996094 132.546875 94.109375 132.546875 L 95.113281 132.546875 C 95.230469 132.546875 95.332031 132.574219 95.417969 132.621094 C 95.453125 132.738281 95.472656 132.867188 95.472656 133.007812 C 95.472656 134.15625 95.109375 135.066406 94.378906 135.742188 C 93.683594 136.390625 92.777344 136.714844 91.660156 136.714844 C 90.625 136.714844 89.777344 136.429688 89.117188 135.859375 C 88.414062 135.253906 88.066406 134.425781 88.066406 133.371094 C 88.066406 132.335938 88.453125 131.382812 89.230469 130.523438 C 89.5 130.214844 90.269531 129.558594 91.542969 128.554688 C 92.464844 127.8125 93.035156 127.148438 93.246094 126.554688 L 89.53125 126.554688 L 89.46875 127.296875 C 89.410156 127.558594 89.253906 127.691406 88.996094 127.691406 L 88.199219 127.691406 C 87.890625 127.691406 87.757812 127.535156 87.792969 127.222656 Z M 87.792969 127.222656 "/>
</g>
</svg>

<svg xmlns="http://www.w3.org/2000/svg" width="99" height="140"><path d="M9.298 719.743h215.404c4.93 0 8.92 4.005 8.92 8.938v314.362c0 4.934-3.99 8.938-8.92 8.938H9.298c-4.93 0-8.92-4.004-8.92-8.938V728.681c0-4.933 3.99-8.938 8.92-8.938Zm0 0" style="fill-rule:nonzero;fill:#fff;fill-opacity:1;stroke-width:.755906;stroke-linecap:butt;stroke-linejoin:miter;stroke:gray;stroke-opacity:1;stroke-miterlimit:4" transform="matrix(.42308 0 0 .42042 0 -302.435)"/><path d="m49.5 39.82 11.95-11.914L49.5 15.992 37.55 27.906ZM49.5 124.008l11.95-11.914L49.5 100.18l-11.95 11.914ZM7.277 25.79l3.985-3.974-3.985-3.968-3.98 3.968ZM91.723 114.21l3.98 3.974-3.98 3.968-3.985-3.968ZM11.207 12.777 10.91 15.2H3.297c.117-1.39.66-2.617 1.625-3.68l2.586-2.273c.898-.8 1.347-1.605 1.347-2.41 0-.54-.148-.969-.449-1.285-.289-.324-.695-.489-1.21-.489-.594 0-1.04.168-1.333.497-.191.218-.336.554-.437 1.011-.102.485-.18.762-.239.84a.97.97 0 0 1-.296.043H3.887a.628.628 0 0 1-.305-.074 1.34 1.34 0 0 1-.055-.387c0-1.148.364-2.058 1.094-2.734.695-.649 1.602-.973 2.719-.973 1.035 0 1.883.285 2.543.856.703.605 1.05 1.433 1.05 2.488 0 1.035-.386 1.988-1.163 2.848-.27.308-1.04.964-2.313 1.968-.922.742-1.492 1.407-1.703 2h3.715l.062-.742c.059-.262.215-.394.473-.394h.797c.308 0 .441.156.406.468ZM87.793 127.223l.297-2.422h7.613c-.117 1.39-.66 2.617-1.625 3.68l-2.586 2.273c-.898.8-1.347 1.605-1.347 2.41 0 .54.148.969.449 1.285.289.324.695.488 1.21.488.594 0 1.04-.167 1.333-.496.191-.218.336-.554.437-1.011.102-.485.18-.762.239-.84a.97.97 0 0 1 .296-.043h1.004c.117 0 .219.027.305.074.035.117.055.246.055.387 0 1.148-.364 2.058-1.094 2.734-.695.649-1.602.973-2.719.973-1.035 0-1.883-.285-2.543-.856-.703-.605-1.05-1.433-1.05-2.488 0-1.035.386-1.988 1.163-2.848.27-.308 1.04-.964 2.313-1.968.922-.743 1.492-1.407 1.703-2h-3.715l-.062.742c-.059.262-.215.394-.473.394H88.2c-.308 0-.441-.156-.406-.468Zm0 0" style="stroke:none;fill-rule:nonzero;fill:red;fill-opacity:1"/></svg>
